{ "compressionlevel":-1,
 "height":13,
 "infinite":false,
 "layers":[
        {
         "data":[8, 10, 6, 8, 9, 9, 8, 8, 10, 6, 9, 6, 4,
            8, 1, 1, 1, 1, 2, 1, 2, 2, 1, 3, 2, 8,
            5, 2, 1, 2, 3, 2, 2, 2, 2, 1, 3, 2, 5,
            6, 3, 1, 3, 2, 1, 1, 3, 2, 2, 1, 3, 8,
            8, 3, 1, 2, 3, 3, 1, 3, 3, 3, 2, 2, 2,
            4, 2, 3, 2, 2, 1, 2, 1, 3, 1, 1, 2, 3,
            6, 1, 1, 3, 2, 3, 1, 3, 3, 3, 1, 1, 3,
            8, 1, 1, 2, 3, 3, 1, 3, 1, 1, 2, 3, 3,
            7, 3, 3, 1, 2, 3, 1, 3, 1, 1, 3, 2, 1,
            5, 3, 2, 3, 1, 2, 3, 3, 2, 1, 2, 2, 10,
            6, 1, 1, 2, 2, 3, 2, 3, 2, 1, 2, 3, 6,
            7, 3, 3, 2, 2, 2, 3, 2, 3, 1, 3, 1, 8,
            6, 6, 4, 10, 7, 10, 4, 10, 9, 9, 8, 4, 8],
         "height":13,
         "id":1,
         "name":"Tile Layer 1",
         "opacity":1,
         "type":"tilelayer",
         "visible":true,
         "width":13,
         "x":0,
         "y":0
        }],
 "nextlayerid":2,
 "nextobjectid":1,
 "orientation":"orthogonal",
 "renderorder":"right-down",
 "tiledversion":"1.11.2",
 "tileheight":32,
 "tilesets":[
        {
         "columns":11,
         "firstgid":1,
         "image":"wall.png",
         "imageheight":32,
         "imagewidth":352,
         "margin":0,
         "name":"wall",
         "spacing":0,
         "tilecount":11,
         "tileheight":32,
         "tilewidth":32
        }],
 "tilewidth":32,
 "type":"map",
 "version":"1.10",
 "width":13
}