{ "compressionlevel":-1,
 "height":32,
 "infinite":true,
 "layers":[
        {
         "chunks":[],
         "height":16,
         "id":1,
         "name":"Tile Layer 1",
         "opacity":1,
         "startx":0,
         "starty":-16,
         "type":"tilelayer",
         "visible":true,
         "width":16,
         "x":0,
         "y":0
        }],
 "nextlayerid":2,
 "nextobjectid":1,
 "orientation":"orthogonal",
 "renderorder":"right-down",
 "tiledversion":"1.11.2",
 "tileheight":32,
 "tilesets":[
        {
         "columns":16,
         "firstgid":1,
         "image":"..\/..\/TileSets\/tileset.png",
         "imageheight":512,
         "imagewidth":512,
         "margin":0,
         "name":"tileset",
         "spacing":0,
         "tilecount":256,
         "tileheight":32,
         "tilewidth":32,
         "wangsets":[
                {
                 "colors":[
                        {
                         "color":"#ff0000",
                         "name":"",
                         "probability":1,
                         "tile":-1
                        }, 
                        {
                         "color":"#00ff00",
                         "name":"",
                         "probability":1,
                         "tile":-1
                        }, 
                        {
                         "color":"#0000ff",
                         "name":"",
                         "probability":1,
                         "tile":-1
                        }],
                 "name":"Unnamed Set",
                 "tile":-1,
                 "type":"corner",
                 "wangtiles":[
                        {
                         "tileid":26,
                         "wangid":[0, 0, 0, 1, 0, 0, 0, 0]
                        }, 
                        {
                         "tileid":27,
                         "wangid":[0, 0, 0, 0, 0, 1, 0, 0]
                        }, 
                        {
                         "tileid":28,
                         "wangid":[0, 0, 0, 1, 0, 0, 0, 0]
                        }, 
                        {
                         "tileid":29,
                         "wangid":[0, 0, 0, 0, 0, 1, 0, 0]
                        }, 
                        {
                         "tileid":42,
                         "wangid":[0, 1, 0, 0, 0, 0, 0, 0]
                        }, 
                        {
                         "tileid":43,
                         "wangid":[0, 0, 0, 0, 0, 0, 0, 1]
                        }, 
                        {
                         "tileid":44,
                         "wangid":[0, 1, 0, 0, 0, 0, 0, 0]
                        }, 
                        {
                         "tileid":45,
                         "wangid":[0, 0, 0, 0, 0, 0, 0, 1]
                        }, 
                        {
                         "tileid":60,
                         "wangid":[0, 0, 0, 2, 0, 0, 0, 0]
                        }, 
                        {
                         "tileid":61,
                         "wangid":[0, 0, 0, 0, 0, 2, 0, 0]
                        }, 
                        {
                         "tileid":62,
                         "wangid":[0, 0, 0, 2, 0, 0, 0, 0]
                        }, 
                        {
                         "tileid":63,
                         "wangid":[0, 0, 0, 0, 0, 2, 0, 0]
                        }, 
                        {
                         "tileid":76,
                         "wangid":[0, 2, 0, 0, 0, 0, 0, 0]
                        }, 
                        {
                         "tileid":77,
                         "wangid":[0, 0, 0, 0, 0, 0, 0, 2]
                        }, 
                        {
                         "tileid":78,
                         "wangid":[0, 2, 0, 0, 0, 0, 0, 0]
                        }, 
                        {
                         "tileid":79,
                         "wangid":[0, 0, 0, 0, 0, 0, 0, 2]
                        }]
                }, 
                {
                 "colors":[
                        {
                         "color":"#ff0000",
                         "name":"",
                         "probability":1,
                         "tile":-1
                        }],
                 "name":"Unnamed Set",
                 "tile":-1,
                 "type":"edge",
                 "wangtiles":[
                        {
                         "tileid":28,
                         "wangid":[0, 0, 1, 0, 1, 0, 0, 0]
                        }, 
                        {
                         "tileid":29,
                         "wangid":[0, 0, 0, 0, 1, 0, 1, 0]
                        }, 
                        {
                         "tileid":30,
                         "wangid":[0, 0, 1, 0, 1, 0, 0, 0]
                        }, 
                        {
                         "tileid":31,
                         "wangid":[0, 0, 0, 0, 1, 0, 1, 0]
                        }, 
                        {
                         "tileid":44,
                         "wangid":[1, 0, 1, 0, 0, 0, 0, 0]
                        }, 
                        {
                         "tileid":45,
                         "wangid":[1, 0, 0, 0, 0, 0, 1, 0]
                        }, 
                        {
                         "tileid":46,
                         "wangid":[1, 0, 1, 0, 0, 0, 0, 0]
                        }, 
                        {
                         "tileid":47,
                         "wangid":[1, 0, 0, 0, 0, 0, 1, 0]
                        }]
                }]
        }],
 "tilewidth":32,
 "type":"map",
 "version":"1.10",
 "width":38
}